X: 1
T: String Quartet in G Major opus 17 no 5 mvt 2
C: Franz Joseph Haydn
%%abc-version 2.0
%%abcx-abcm2ps-target-version 5.9.1 (29 Sep 2008)
%%abc-creator hum2abc beta
%%abcx-conversion-date 2021/02/14 14:38:26
%%abc-copyright Copyright (c) 1994, 2000 Center for Computer Assisted Research in the Humanities
%%abc-edited-by Frances Bennion
%%abcx-initial-encoding-date 1997/04/15
%%gracespace 0 6 6
%%humdrum-veritas 1410590799
%%humdrum-veritas-data 2837606553
%%linebreak <none>
%%barnumbers 0
L: 1/4
M: 3/4
N: Derived from op17n5-02.krn
Q: "Menuetto: Allegretto"
%%staves [1 2 3 4]
V: 1
V: 2
V: 3 clef=alto
V: 4 clef=bass
K: G
[V:1]z2 G/B/ [I:setbarnb1] |
[V:2]z2 z |
[V:3]z2 z |
[V:4]z2 z |
[V:1]d2 B/G/ |
[V:2]z3 |
[V:3]z2 G,/B,/ |
[V:4]z2 G,/B,/ |
[V:1]F A D |
[V:2]D/^C/ D/C/ D/C/ |
[V:3]C3 |
[V:4]C3 |
[V:1]G A B |
[V:2]D/^C/ D/C/ D/C/ |
[V:3]B, A, G, |
[V:4]B, A, G, |
[V:1]d/c/ z G/B/ |
[V:2]D z2 |
[V:3]F, z2 |
[V:4]F, z2 |
[V:1]d2 B/G/ |
[V:2]z3 |
[V:3]z2 G,/B,/ |
[V:4]z2 G,/B,/ |
[V:1]F A D |
[V:2]D/^C/ D/C/ D/C/ |
[V:3]C3 |
[V:4]C3 |
[V:1]G A c/B/ |
[V:2]D z F/G/ |
[V:3]B, C A, |
[V:4]B, C D |
[V:1]G z B/d/ |
[V:2]G, z B,/D/ |
[V:3]G, z2 |
[V:4]G, G,, z |
[V:1]g d e |
[V:2]G D E |
[V:3]z G,/B,/ C |
[V:4]z G,/B,/ C |
[V:1]c c' a/c'/ |
[V:2]C c A/c/ |
[V:3]A, F, z |
[V:4]A, F, z |
[V:1]d' b e/a/ |
[V:2]d B E/A/ |
[V:3]D/F/ G C |
[V:4]D,/F,/ G, C, |
[V:1]g f G/B/ |
[V:2]G F z |
[V:3]D D, z |
[V:4]D, D z |
[V:1]d2 B/G/ |
[V:2]z3 |
[V:3]z2 G,/B,/ |
[V:4]z2 G,/B,/ |
[V:1]F A D |
[V:2]D/^C/ D/C/ D/C/ |
[V:3]C3 |
[V:4]C3 |
[V:1]G A B |
[V:2]D/^C/ D/C/ D/C/ |
[V:3]B, A, G, |
[V:4]B, A, G, |
[V:1]d/c/ z g/b/ |
[V:2]D z2 |
[V:3]F, z2 |
[V:4]F, z2 |
[V:1]d' g/b/ c' |
[V:2]B/d/ e A/c/ |
[V:3]z3 |
[V:4]z3 |
[V:1]f/a/ b e/g/ |
[V:2]d G/B/ c/B/ |
[V:3]z3 |
[V:4]z3 |
[V:1]g3 |
[V:2]A c c |
[V:3]z A A |
[V:4]z D D |
[V:1]f z G/B/ |
[V:2]c z2 |
[V:3]A z2 |
[V:4]D z2 |
[V:1]d2 B/G/ |
[V:2]z3 |
[V:3]z2 G,/B,/ |
[V:4]z2 G,/B,/ |
[V:1]F A D |
[V:2]D/^C/ D/C/ D/C/ |
[V:3]C3 |
[V:4]C3 |
[V:1]G A B |
[V:2]D/^C/ D/C/ D/C/ |
[V:3]B, A, G, |
[V:4]B, A, G, |
[V:1]d/c/ z B/d/ |
[V:2]D z G/B/ |
[V:3]F, z2 |
[V:4]F, z2 |
[V:1]e A/c/ d |
[V:2]c F/A/ B |
[V:3]E/G/ A D/F/ |
[V:4]C,/E,/ F, B,,/D,/ |
[V:1]G/B/ c F/A/ |
[V:2]E/G/ A D/F/ |
[V:3]G C/E/ F |
[V:4]E, A,,/C,/ D, |
[V:1]B c A |
[V:2]G E F |
[V:3]D C D |
[V:4]G,, C, D, |
[V:1]G z G/B/ |
[V:2]G z2 |
[V:3]G, z2 |
[V:4]G,, z2 |
[V:1]d2 B/G/ |
[V:2]z2 G,/B,/ |
[V:3]z3 |
[V:4]z3 |
[V:1]F A D |
[V:2]C3 |
[V:3]z2 F,/A,/ |
[V:4]z2 D,,/F,,/ |
[V:1]G G G |
[V:2]B, B, B, |
[V:3]D D D |
[V:4]G,, G,, G,, |
[V:1]G z D |
[V:2]B, z2 |
[V:3]D2 z |
[V:4]G,,2 z |
[V:1]G G G |
[V:2]_B,2 C |
[V:3]z _B A |
[V:4]G,2 A, |
[V:1]G G/A/ G |
[V:2]D2 _E |
[V:3]z G _E |
[V:4]_B,2 C |
[V:1]c c c |
[V:2]C2 _B, |
[V:3]z F G |
[V:4]A,2 G, |
[V:1]c c/d/ c |
[V:2]A,2 F |
[V:3]z D A, |
[V:4]F,2 D |
[V:1]_B B B |
[V:2]G2 =F |
[V:3]z _E =F |
[V:4]_E2 D |
[V:1]_e e/=f/ e |
[V:2]_E2 A |
[V:3]z G c |
[V:4]C2 =F, |
[V:1]d =f f |
[V:2]_B D =F |
[V:3]z =F _B, |
[V:4]_B,2 D |
[V:1]=f f/g/ f |
[V:2]_E2 C |
[V:3]z A _e |
[V:4]C2 A, |
[V:1]=f _B B |
[V:2]D2 =F |
[V:3]z =F _B, |
[V:4]_B,2 D |
[V:1]A A/_B/ c |
[V:2]_E2 A |
[V:3]z =F _E |
[V:4]C2 =F, |
[V:1]_B d d |
[V:2]_B z2 |
[V:3]D z2 |
[V:4]_B, z2 |
[V:1]d2 D |
[V:2]z3 |
[V:3]z3 |
[V:4]z3 |
[V:1]G G G |
[V:2]D2 _E |
[V:3]z =F _E |
[V:4]B,2 C |
[V:1]G G/_A/ G |
[V:2]=F2 _E |
[V:3]z B, C |
[V:4]D2 C |
[V:1]=F F F |
[V:2]C2 D |
[V:3]z _E D |
[V:4]A,2 _B, |
[V:1]=F F/G/ F |
[V:2]_E2 D |
[V:3]z A, _B, |
[V:4]C2 _B, |
[V:1]_B B B |
[V:2]z G, A, |
[V:3]_B,2 A, |
[V:4]G,2 =F, |
[V:1]_B B/c/ B |
[V:2]_B, z2 |
[V:3]G,2 =F, |
[V:4]_E,2 D, |
[V:1]_e e e |
[V:2]z A _B |
[V:3]_E,2 D, |
[V:4]C,2 _B,, |
[V:1]_e e/=f/ e |
[V:2]c z2 |
[V:3]C, C _B, |
[V:4]A,,2 G,, |
[V:1]c' c' c' |
[V:2][Dc] [cD] [Dc] |
[V:3]A, [FA,] [FA,] |
[V:4]F,, F,, F,, |
[V:1]c' z D/A/ |
[V:2][cD] z2 |
[V:3][A,F] z2 |
[V:4]F,, z2 |
[V:1]c z D/F/ |
[V:2]A z2 |
[V:3]D z2 |
[V:4]F, z2 |
[V:1]G z2 |]
[V:2]G z2 |]
[V:3]D z2 |]
[V:4]G, z2 |]

